qtOgitor/res/icons/relight.svg

<svg width="40" xmlns="http://www.w3.org/2000/svg" height="40" viewBox="0 0 32 32">
<path opacity=".05" fill="#020202" d="m0,0h32v32h-12.3c.8-.69 1.61-1.4 2.4-2.11 2.03-1.77 4.12-3.54 5.7-5.74 .9-1.35 1.72-2.74 2.56-4.13 1.6-2.34 1.59-4.38-.01-6.09-2.61-4.82-6.32-9.03-11.49-11.12-2.32-1.77-4.3-1.83-5.93-.2-3.78,2.42-8.04,4.82-9.77,9.21-.33,.58-1.01,1.73-1.34,2.31-1.97,2.55-1.95,4.47 .07,5.78 2.13,4.86 5.81,8.66 10.43,11.22l-.48,.87h-11.84v-32z"/>
<path opacity=".42" fill="#212121" d="m12.93,2.61c1.63-1.63 3.61-1.57 5.93,.2-1.38,.45-2.79,.64-4.24,.58-.42-.19-1.26-.58-1.69-.78z"/>
<path opacity=".97" fill="#8b9194" d="m3.16,11.82c1.73-4.39 5.99-6.79 9.77-9.21 .43,.2 1.27,.59 1.69,.78 1.81,.82 3.67,1.53 5.38,2.54-4.53-.87-9.39,.05-12.25,3.81-.73,.75-1.43,1.53-2.1,2.33-.54,.63-1.06,1.27-1.57,1.91-.23-.54-.69-1.62-.92-2.16z"/>
<path opacity=".97" fill="#b8bdc0" d="m14.62,3.39c1.45,.06 2.86-.13 4.24-.58 5.17,2.09 8.88,6.3 11.49,11.12-.96,1.93-.88,4.16 .01,6.09-.84,1.39-1.66,2.78-2.56,4.13-.2-.33-.62-.99-.82-1.32 .66-3.64 1.68-7.48-.1-10.95-.38-2.03-1.52-3.31-3.56-2.19-.89-1.43-1.93-2.79-3.32-3.76-1.71-1.01-3.57-1.72-5.38-2.54z"/>
<path fill="#cde4f5" d="m7.75,9.74c2.86-3.76 7.72-4.68 12.25-3.81 1.39,.97 2.43,2.33 3.32,3.76-.79,1.07-1.59,2.13-2.39,3.19-.39,.31-1.18,.93-1.57,1.24-4.17-.61-8.44-1.31-11.61-4.38z"/>
<path fill="#0b4d79" d="m23.32,9.69c2.04-1.12 3.18,.16 3.56,2.19-5.14,2.22-3.51,9-2.59,13.32-1.22,1.19-2.6,2.2-4.1,3.01 2.87-2.74-.41-5.97 .95-9.08 .8-2.06 .46-4.21-.21-6.25 .8-1.06 1.6-2.12 2.39-3.19z"/>
<path fill="#5fb2eb" d="m5.65,12.07c.67-.8 1.37-1.58 2.1-2.33 3.17,3.07 7.44,3.77 11.61,4.38-3.69,3.75-10.28,1.2-13.71-2.05z"/>
<path opacity=".98" fill="#bec0c1" d="m3.16,11.82c.23,.54 .69,1.62 .92,2.16l.25,.72c-.77,4.88 .33,10.79 5.47,12.67 2.65,1.83 5.96,1.38 9.02,1.64 .62,.23 1.85,.69 2.46,.92-2.98,.42-5.97,.82-8.96,1.2-4.62-2.56-8.3-6.36-10.43-11.22 .76-1.86 .61-3.92-.07-5.78 .33-.58 1.01-1.73 1.34-2.31z"/>
<path fill="#096fa9" d="m4.08,13.98c.51-.64 1.03-1.28 1.57-1.91 3.43,3.25 10.02,5.8 13.71,2.05 .39-.31 1.18-.93 1.57-1.24 .67,2.04 1.01,4.19 .21,6.25-1.36,3.11 1.92,6.34-.95,9.08-.34,.2-1.03,.6-1.37,.8-3.06-.26-6.37,.19-9.02-1.64-2.07-4.14-3.53-8.38-5.47-12.67l-.25-.72z"/>
<path fill="#092740" d="m24.29,25.2c-.92-4.32-2.55-11.1 2.59-13.32 1.78,3.47 .76,7.31 .1,10.95-.89,.8-1.8,1.58-2.69,2.37z"/>
<path opacity=".42" fill="#202121" d="m1.89,19.91c-2.02-1.31-2.04-3.23-.07-5.78 .68,1.86 .83,3.92 .07,5.78z"/>
<path opacity=".49" fill="#292a2b" d="m30.35,13.93c1.6,1.71 1.61,3.75 .01,6.09-.89-1.93-.97-4.16-.01-6.09z"/>
<path fill="#1c435d" d="m4.33,14.7c1.94,4.29 3.4,8.53 5.47,12.67-5.14-1.88-6.24-7.79-5.47-12.67z"/>
<path fill="#7e878c" d="m24.29,25.2c.89-.79 1.8-1.57 2.69-2.37 .2,.33 .62,.99 .82,1.32-1.58,2.2-3.67,3.97-5.7,5.74l-.82,.04c-.61-.23-1.84-.69-2.46-.92 .34-.2 1.03-.6 1.37-.8 1.5-.81 2.88-1.82 4.1-3.01z"/>
<path opacity=".41" fill="#0b0b0c" d="m12.32,31.13c2.99-.38 5.98-.78 8.96-1.2l.82-.04c-.79,.71-1.6,1.42-2.4,2.11h-7.86l.48-.87z"/>
</svg>

<?xml version="1.0" encoding="UTF-8" standalone="no"?>
<!-- Created with Inkscape (http://www.inkscape.org/) -->
<svg
   xmlns:svg="http://www.w3.org/2000/svg"
   xmlns="http://www.w3.org/2000/svg"
   version="1.0"
   width="32pt"
   height="32pt"
   viewBox="0 0 32 32"
   id="svg2">
  <defs
     id="defs50" />
  <g
     id="#0202020c">
    <path
       d="M 0,0 L 32,0 L 32,32 L 19.7,32 C 20.5,31.31 21.31,30.6 22.1,29.89 C 24.13,28.12 26.22,26.35 27.8,24.15 C 28.7,22.8 29.52,21.41 30.36,20.02 C 31.96,17.68 31.95,15.64 30.35,13.93 C 27.74,9.11 24.03,4.9 18.86,2.81 C 16.54,1.04 14.56,0.98 12.93,2.61 C 9.15,5.03 4.89,7.43 3.16,11.82 C 2.83,12.4 2.15,13.55 1.82,14.13 C -0.15,16.68 -0.13,18.6 1.89,19.91 C 4.02,24.77 7.7,28.57 12.32,31.13 L 11.84,32 L 0,32 L 0,0 z"
       id="path5"
       style="opacity:0.05;fill:#020202" />
  </g>
  <g
     id="#2121216a">
    <path
       d="M 12.93,2.61 C 14.56,0.98 16.54,1.04 18.86,2.81 C 17.48,3.26 16.07,3.45 14.62,3.39 C 14.2,3.2 13.36,2.81 12.93,2.61 z"
       id="path8"
       style="opacity:0.41999996;fill:#212121" />
  </g>
  <g
     id="#8b9194f8">
    <path
       d="M 3.16,11.82 C 4.89,7.43 9.15,5.03 12.93,2.61 C 13.36,2.81 14.2,3.2 14.62,3.39 C 16.43,4.21 18.29,4.92 20,5.93 C 15.47,5.06 10.61,5.98 7.75,9.74 C 7.02,10.49 6.32,11.27 5.65,12.07 C 5.11,12.7 4.59,13.34 4.08,13.98 C 3.85,13.44 3.39,12.36 3.16,11.82 z"
       id="path11"
       style="opacity:0.97000002;fill:#8b9194" />
  </g>
  <g
     id="#b8bdc0f8">
    <path
       d="M 14.62,3.39 C 16.07,3.45 17.48,3.26 18.86,2.81 C 24.03,4.9 27.74,9.11 30.35,13.93 C 29.39,15.86 29.47,18.09 30.36,20.02 C 29.52,21.41 28.7,22.8 27.8,24.15 C 27.6,23.82 27.18,23.16 26.98,22.83 C 27.64,19.19 28.66,15.35 26.88,11.88 C 26.5,9.85 25.36,8.57 23.32,9.69 C 22.43,8.26 21.39,6.9 20,5.93 C 18.29,4.92 16.43,4.21 14.62,3.39 z"
       id="path14"
       style="opacity:0.97000002;fill:#b8bdc0" />
  </g>
  <g
     id="#cde4f5ff">
    <path
       d="M 7.75,9.74 C 10.61,5.98 15.47,5.06 20,5.93 C 21.39,6.9 22.43,8.26 23.32,9.69 C 22.53,10.76 21.73,11.82 20.93,12.88 C 20.54,13.19 19.75,13.81 19.36,14.12 C 15.19,13.51 10.92,12.81 7.75,9.74 z"
       id="path17"
       style="opacity:1;fill:#cde4f5" />
  </g>
  <g
     id="#0b4d79ff">
    <path
       d="M 23.32,9.69 C 25.36,8.57 26.5,9.85 26.88,11.88 C 21.74,14.1 23.37,20.88 24.29,25.2 C 23.07,26.39 21.69,27.4 20.19,28.21 C 23.06,25.47 19.78,22.24 21.14,19.13 C 21.94,17.07 21.6,14.92 20.93,12.88 C 21.73,11.82 22.53,10.76 23.32,9.69 z"
       id="path20"
       style="opacity:1;fill:#0b4d79" />
  </g>
  <g
     id="#5fb2ebff">
    <path
       d="M 5.65,12.07 C 6.32,11.27 7.02,10.49 7.75,9.74 C 10.92,12.81 15.19,13.51 19.36,14.12 C 15.67,17.87 9.08,15.32 5.65,12.07 z"
       id="path23"
       style="opacity:1;fill:#5fb2eb" />
  </g>
  <g
     id="#bec0c1fa">
    <path
       d="M 3.16,11.82 C 3.39,12.36 3.85,13.44 4.08,13.98 L 4.33,14.7 C 3.56,19.58 4.66,25.49 9.8,27.37 C 12.45,29.2 15.76,28.75 18.82,29.01 C 19.44,29.24 20.67,29.7 21.28,29.93 C 18.3,30.35 15.31,30.75 12.32,31.13 C 7.7,28.57 4.02,24.77 1.89,19.91 C 2.65,18.05 2.5,15.99 1.82,14.13 C 2.15,13.55 2.83,12.4 3.16,11.82 z"
       id="path26"
       style="opacity:0.98000004;fill:#bec0c1" />
  </g>
  <g
     id="#096fa9ff">
    <path
       d="M 4.08,13.98 C 4.59,13.34 5.11,12.7 5.65,12.07 C 9.08,15.32 15.67,17.87 19.36,14.12 C 19.75,13.81 20.54,13.19 20.93,12.88 C 21.6,14.92 21.94,17.07 21.14,19.13 C 19.78,22.24 23.06,25.47 20.19,28.21 C 19.85,28.41 19.16,28.81 18.82,29.01 C 15.76,28.75 12.45,29.2 9.8,27.37 C 7.73,23.23 6.27,18.99 4.33,14.7 L 4.08,13.98 z"
       id="path29"
       style="opacity:1;fill:#096fa9" />
  </g>
  <g
     id="#092740ff">
    <path
       d="M 24.29,25.2 C 23.37,20.88 21.74,14.1 26.88,11.88 C 28.66,15.35 27.64,19.19 26.98,22.83 C 26.09,23.63 25.18,24.41 24.29,25.2 z"
       id="path32"
       style="opacity:1;fill:#092740" />
  </g>
  <g
     id="#2021216b">
    <path
       d="M 1.89,19.91 C -0.13,18.6 -0.15,16.68 1.82,14.13 C 2.5,15.99 2.65,18.05 1.89,19.91 z"
       id="path35"
       style="opacity:0.41999996;fill:#202121" />
  </g>
  <g
     id="#292a2b7c">
    <path
       d="M 30.35,13.93 C 31.95,15.64 31.96,17.68 30.36,20.02 C 29.47,18.09 29.39,15.86 30.35,13.93 z"
       id="path38"
       style="opacity:0.48999999;fill:#292a2b" />
  </g>
  <g
     id="#1c435dff">
    <path
       d="M 4.33,14.7 C 6.27,18.99 7.73,23.23 9.8,27.37 C 4.66,25.49 3.56,19.58 4.33,14.7 z"
       id="path41"
       style="opacity:1;fill:#1c435d" />
  </g>
  <g
     id="#7e878cfc">
    <path
       d="M 24.29,25.2 C 25.18,24.41 26.09,23.63 26.98,22.83 C 27.18,23.16 27.6,23.82 27.8,24.15 C 26.22,26.35 24.13,28.12 22.1,29.89 L 21.28,29.93 C 20.67,29.7 19.44,29.24 18.82,29.01 C 19.16,28.81 19.85,28.41 20.19,28.21 C 21.69,27.4 23.07,26.39 24.29,25.2 z"
       id="path44"
       style="opacity:1;fill:#7e878c" />
  </g>
  <g
     id="#0b0b0c69">
    <path
       d="M 12.32,31.13 C 15.31,30.75 18.3,30.35 21.28,29.93 L 22.1,29.89 C 21.31,30.6 20.5,31.31 19.7,32 L 11.84,32 L 12.32,31.13 z"
       id="path47"
       style="opacity:0.41000001;fill:#0b0b0c" />
  </g>
</svg>
